src/icons/svg/help.svg

<?xml version="1.0" encoding="UTF-8"?>
<svg width="42px" height="75px" viewBox="0 0 42 75" version="1.1" xmlns="http://www.w3.org/2000/svg"
>
    <path d="M20,0 C8.77862595,0 0,8.77862595 0,20 L6.10687023,20 C6.10687023,12.0610687 12.0610687,6.10687023 20,6.10687023 C27.6335878,6.10687023 33.8931298,12.3664122 33.8931298,20 C33.8931298,26.4885496 29.8473282,30 21.4503817,36.6412214 L20.610687,37.3282443 C18.3206107,39.1603053 16.870229,42.2900763 16.870229,45.4198473 L16.870229,61.0687023 L22.9770992,61.0687023 L22.9770992,45.4198473 C22.9770992,44.1984733 23.5877863,42.7480916 24.4274809,42.1374046 L25.2671756,41.4503817 C33.5114504,34.8854962 40,29.6946565 40,20 C40,9.00763359 31.0687023,0 20,0 Z M16.870229,67.1755725 L22.9770992,67.1755725 L22.9770992,73.2824427 L16.870229,73.2824427 L16.870229,67.1755725 Z"
          id="形状"></path>
</svg>

<svg width="42" height="75" xmlns="http://www.w3.org/2000/svg"><path d="M20 0C8.779 0 0 8.779 0 20h6.107C6.107 12.061 12.06 6.107 20 6.107c7.634 0 13.893 6.26 13.893 13.893 0 6.489-4.046 10-12.443 16.641l-.84.687c-2.29 1.832-3.74 4.962-3.74 8.092v15.649h6.107v-15.65c0-1.22.61-2.67 1.45-3.282l.84-.687C33.511 34.885 40 29.695 40 20 40 9.008 31.069 0 20 0zm-3.13 67.176h6.107v6.106H16.87v-6.106z"/></svg>
